X:29
T:General Jackoo. THO5.029
M:2/4
L:1/8
B:Thompson's Complete Collection of 200 Favourite Dances Vol.5
F:https://www.libraryofdance.org/manuals/1780c-Thompson-Compleat-5.pdf
Z:vmp. Peter Dunk 2024
Q:1/4=120
N:General Jackoo was a celebrated performing monkey in Astley's Circus
K:D
fadf|gbed|ceAc|df/g/ ag|
fdfd|ceac|Ba^gb|a2A2:|
|:ABAB|cdef|gfed|c/d/e/c/ AA|
ABcd|efgf|ed {f/}(ed/c/)|d2D2:|
W:
W:Turn right hands across half round, left hands back again ./.
W:lead down the middle, up again ancast off ./:
W:Allemand with your partner :/.
W:hands 6 round :/:

